svg/part/brain_fill.svg

<?xml version="1.0" encoding="UTF-8"?>
<svg width="24px" height="24px" viewBox="0 0 24 24" version="1.1" xmlns="http://www.w3.org/2000/svg" xmlns:xlink="http://www.w3.org/1999/xlink">
    <title>brain_fill</title>
    <g id="Icon" stroke="none" stroke-width="1" fill="none" fill-rule="evenodd">
        <g id="Part" transform="translate(-288.000000, -240.000000)">
            <g id="brain_fill" transform="translate(288.000000, 240.000000)">
                <path d="M24,0 L24,24 L0,24 L0,0 L24,0 Z M12.5935,23.2578 L12.5819,23.2595 L12.5109,23.295 L12.4919,23.2987 L12.4767,23.295 L12.4057,23.2595 C12.3958,23.2564 12.387,23.259 12.3821,23.2649 L12.378,23.2758 L12.3609,23.7031 L12.3659,23.7235 L12.3769,23.7357 L12.4805,23.8097 L12.4953,23.8136 L12.5071,23.8097 L12.6107,23.7357 L12.6233,23.7197 L12.6267,23.7031 L12.6096,23.2758 C12.6076,23.2657 12.601,23.2593 12.5935,23.2578 Z M12.8584,23.1453 L12.8445,23.1473 L12.6598,23.2397 L12.6499,23.2499 L12.6472,23.2611 L12.6651,23.6906 L12.6699,23.7034 L12.6784,23.7105 L12.8793,23.8032 C12.8914,23.8069 12.9022,23.803 12.9078,23.7952 L12.9118,23.7812 L12.8777,23.1665 C12.8753,23.1546 12.8674,23.147 12.8584,23.1453 Z M12.143,23.1473 C12.1332,23.1424 12.1222,23.1453 12.1156,23.1526 L12.1099,23.1665 L12.0758,23.7812 C12.0751,23.7927 12.0828,23.8019 12.0926,23.8046 L12.1083,23.8032 L12.3092,23.7105 L12.3186,23.7024 L12.3225,23.6906 L12.3404,23.2611 L12.3372,23.2485 L12.3278,23.2397 L12.143,23.1473 Z" id="MingCute" fill-rule="nonzero"></path>
                <path d="M15,3 C17.2091,3 19,4.79086 19,7 L19,8.12602 C20.7252,8.57006 22,10.1362 22,12 C22,13.8638 20.7252,15.4299 19,15.874 C18.681,15.956 18.3461,16 18,16 C17.7247,16 17.4569,15.9724 17.1989,15.92 C16.6577,15.8101 16.1298,16.1598 16.02,16.7011 C15.9101,17.2423 16.2598,17.7702 16.8011,17.88 C17.1893,17.9588 17.5903,18 18,18 C18.3022,18 18.5995,17.9776 18.8903,17.9343 C18.4695,19.6928 16.8874,21 15,21 C13.8053,21 12.7329,20.4762 12,19.6458 C11.2671,20.4762 10.1947,21 9,21 C7.11258,21 5.53047,19.6928 5.1097,17.9343 C5.40045,17.9776 5.69778,18 6,18 C6.40965,18 6.81071,17.9588 7.19893,17.88 C7.74018,17.7702 8.08988,17.2423 7.98001,16.7011 C7.87015,16.1598 7.34231,15.8101 6.80107,15.92 C6.54307,15.9724 6.27528,16 6,16 C5.6539,16 5.31898,15.9563 5,15.8743 C3.27477,15.4302 2,13.8638 2,12 C2,10.1362 3.27477,8.57006 5,8.12602 L5,7 C5,4.79086 6.79086,3 9,3 C10.1947,3 11.2671,3.52376 12,4.35418 C12.7329,3.52376 13.8053,3 15,3 Z M11.99999,6 C11.4871493,6 11.0644821,6.38604429 11.0067177,6.88337975 L10.99999,7 L10.99999,11.5351 C10.4117,11.1948 9.72857,11 8.99999,11 C8.44771,11 7.99999,11.4477 7.99999,12 C7.99999,12.5523 8.44771,13 8.99999,13 C10.0543905,13 10.9181586,13.81585 10.9945045,14.8507339 L10.99999,15 L10.99999,17 C10.99999,17.5523 11.4477,18 11.99999,18 C12.5128493,18 12.9355005,17.613973 12.9932626,17.1166239 L12.99999,17 L12.99999,14.9941 C13.0032,13.8922 13.8974,13 14.99999,13 C15.5523,13 15.99999,12.5523 15.99999,12 C15.99999,11.4477 15.5523,11 14.99999,11 C14.3624738,11 13.7597858,11.1491438 13.2249532,11.4144041 L12.99999,11.5351 L12.99999,7 C12.99999,6.44772 12.5523,6 11.99999,6 Z" id="形状" fill="#09244B"></path>
            </g>
        </g>
    </g>
</svg>

<svg xmlns="http://www.w3.org/2000/svg" width="24" height="24"><g fill="none" fill-rule="evenodd"><path d="M24 0v24H0V0h24ZM12.594 23.258l-.012.002-.071.035-.02.004-.014-.004-.071-.036c-.01-.003-.019 0-.024.006l-.004.01-.017.428.005.02.01.013.104.074.015.004.012-.004.104-.074.012-.016.004-.017-.017-.427c-.002-.01-.009-.017-.016-.018Zm.264-.113-.014.002-.184.093-.01.01-.003.011.018.43.005.012.008.008.201.092c.012.004.023 0 .029-.008l.004-.014-.034-.614c-.003-.012-.01-.02-.02-.022Zm-.715.002a.023.023 0 0 0-.027.006l-.006.014-.034.614c0 .012.007.02.017.024l.015-.002.201-.093.01-.008.003-.011.018-.43-.003-.012-.01-.01-.184-.092Z"/><path fill="#09244B" d="M15 3a4 4 0 0 1 4 4v1.126a4.002 4.002 0 0 1-1.801 7.794 1 1 0 1 0-.398 1.96 6.022 6.022 0 0 0 2.09.054A4.002 4.002 0 0 1 12 19.646a4.002 4.002 0 0 1-6.89-1.712 6.042 6.042 0 0 0 2.089-.054 1 1 0 1 0-.398-1.96A4.02 4.02 0 0 1 5 15.874a4.002 4.002 0 0 1 0-7.748V7a4 4 0 0 1 7-2.646A3.99 3.99 0 0 1 15 3Zm-3 3a1 1 0 0 0-.993.883L11 7v4.535A3.982 3.982 0 0 0 9 11a1 1 0 1 0 0 2 2 2 0 0 1 1.995 1.85L11 15v2a1 1 0 0 0 1.993.117L13 17v-2.006A2 2 0 0 1 15 13a1 1 0 1 0 0-2c-.638 0-1.24.15-1.775.414l-.225.121V7a1 1 0 0 0-1-1Z"/></g></svg>
